!!!COM: Haydn, Franz Joseph
!!!OTL: String Quartet in E-flat Major
!!!OPS: Opus 33
!!!ONM: No. 2
!!!OMD: Scherzo: Allegro
!!!OMV: 2
!!!SCT: H III:38
!!!SCA: Thematisch-bibliographisches Werkevererzeichnis (A. van Hoboken)
!!!YOR: Trautwein Edition
!!!ENC: Frances Bennion
!!!CDT: 1732/3/31/-1809/5/31/
!!!CNT: Oesterreich
!!!YEC: Copyright (c) 1994, 2000 Center for Computer Assisted Research in the Humanities
!!!YEM: Rights to all derivative editions reserved.
!!!YEM: Refer to licensing agreement for further details.
!!!YEN: United States of America
**kern	**kern	**kern	**kern
*k[b-e-a-]	*k[b-e-a-]	*k[b-e-a-]	*k[b-e-a-]
*E-:	*E-:	*E-:	*E-:
*clefF4	*clefC3	*clefG	*clefG
*M3/4	*M3/4	*M3/4	*M3/4
2r	2r	2r	2r
4r	4r	4r	8dd
.	.	.	8ee-
=1	=1	=1	=1
4E-	4B-	4e-	4e- 4G
4E-	4B-	4e-	4e- 4G
4r	4r	4r	8dd
.	.	.	8ee-
=2	=2	=2	=2
4AA-	4c	4c	4f 4A-
4AA-	4c	4c	4f 4A-
4r	4r	4r	8b
.	.	.	8cc
=3	=3	=3	=3
4BB-	4B-	4d	4f 4B-
4D	4d	4d	4f 4B-
4F	4f	4d	4f 4B-
=4	=4	=4	=4
2BB-	2B-	2d	2B- 2f
4r	4r	4aa-	8c- 8f
.	.	.	8B-
=5	=5	=5	=5
2.r	2.r	4aa-	8c- 8f
.	.	.	8B-
.	.	4aa-	8c- 8f
.	.	.	8B-
.	.	4aa-	8c- 8f
.	.	.	8B-
=6	=6	=6	=6
2.r	2.r	2aa-	2B- 2f
.	.	4r	8d
.	.	.	8f
=7	=7	=7	=7
2.AA-	[2.B-	2.dd 2.f	8a-
.	.	.	8b-
.	.	.	8dd
.	.	.	8ff
.	.	.	8aa-
.	.	.	8ccc
=8	=8	=8	=8
4GG	4B-]	4ee- 4e-	8ccc
.	.	.	8bb-
2r	2r	2r	8aa-
.	.	.	8gg
.	.	.	8ff
.	.	.	8ee-
=9	=9	=9	=9
4G	4g	4b-	4b-
4A-	4a-	4cc	4cc
4B-	4b-	4dd	4dd
=10	=10	=10	=10
4E-	4e-	4ee-	4ee-
2r	2r	2r	4r
.	.	.	8dd
.	.	.	8ccc
=11	=11	=11	=11
2.r	2.r	2r	8ccc
.	.	.	8bb-
.	.	.	8aa-
.	.	.	8gg
.	.	8B-	8ff
.	.	8a-	8dd
=12	=12	=12	=12
2.r	2.r	8a-	4ee-
.	.	8g	.
.	.	8f	4r
.	.	8e-	.
.	.	8d	8g
.	.	8B	8ff
=13	=13	=13	=13
2.r	2.r	4c	8ff
.	.	.	8ee-
.	.	4r	8dd
.	.	.	8cc
.	.	8G	8dd
.	.	8f	8b
=14	=14	=14	=14
2.r	2.r	8f	4cc
.	.	8e-	.
.	.	8d	4r
.	.	8c	.
.	.	8B-	8f
.	.	8A	8ee-
=15	=15	=15	=15
2r	2r	4B-	8ee-
.	.	.	8dd
.	.	4r	8cc
.	.	.	8b-
4A	[4f	4c	8f
.	.	.	8ee-
=16	=16	=16	=16
4B-	4f]	4d	8ee-
.	.	.	8dd
2r	4r	2r	8cc
.	.	.	8b-
.	8dd	.	8bb-
.	8cc	.	8aa
=17	=17	=17	=17
2.r	8b-	2.r	8gg
.	8a	.	8ff
.	8g	.	8ee-
.	8f	.	8dd
.	8e-	.	8cc
.	8d	.	8b-
=18	=18	=18	=18
2.r	8c	2.r	8a
.	8B-	.	8g
.	8A	.	8f
.	8G	.	8e-
.	8F	.	8d
.	8E-	.	8c
=19	=19	=19	=19
8BB-	4D	8d	4B-
8D	.	8f	.
8E-	4D	8g	4B-
8F	.	8a	.
8G	4D	8b-	4B-
8A	.	8cc	.
=20	=20	=20	=20
4B-	4D	4b-	4B-
2r	2r	2r	4r
.	.	.	8dd-
.	.	.	8cc
=21	=21	=21	=21
2.r	4e	2.b-	8dd-
.	.	.	8cc
.	4e	.	8dd-
.	.	.	8cc
.	4e	.	8dd-
.	.	.	8cc
=22	=22	=22	=22
2.r	2f	2a-	2cc
.	4r	4r	8cc-
.	.	.	8b-
=23	=23	=23	=23
2.r	4d	2.a-	8cc-
.	.	.	8b-
.	4d	.	8cc-
.	.	.	8b-
.	4d	.	8cc-
.	.	.	8b-
=24	=24	=24	=24
2.r	2e-	2g	2b-
.	4r	4r	8dd
.	.	.	8ee-
=25	=25	=25	=25
4E-	4B-	4e-	4e- 4G
4E-	4B-	4e-	4e- 4G
4r	4r	4r	8dd
.	.	.	8ee-
=26	=26	=26	=26
4AA-	4c	4c	4f 4A-
4AA-	4c	4c	4A- 4f
4r	4r	4r	8b
.	.	.	8cc
=27	=27	=27	=27
4BB-	4B-	4d	4f 4B-
4D	4d	4d	4f 4B-
4F	4f	4d	4f 4B-
=28	=28	=28	=28
2BB-	2B-	2d	2B- 2f
4r	4r	4aa-	8c- 8f
.	.	.	8B-
=29	=29	=29	=29
2.r	2.r	4aa-	8c- 8f
.	.	.	8B-
.	.	4aa-	8c- 8f
.	.	.	8B-
.	.	4aa-	8c- 8f
.	.	.	8B-
=30	=30	=30	=30
2.r	2.r	2aa-	2f 2B-
.	.	4r	8d
.	.	.	8f
=31	=31	=31	=31
2.AA-	[2.B-	2.dd 2.f	8a-
.	.	.	8b-
.	.	.	8dd
.	.	.	8ff
.	.	.	8aa-
.	.	.	8ccc
=32	=32	=32	=32
4GG	4B-]	4e- 4ee-	8ccc
.	.	.	8bb-
2r	2r	2r	8aa-
.	.	.	8gg
.	.	.	8ff
.	.	.	8ee-
=33	=33	=33	=33
4G	4g	4b-	4b-
4A-	4a-	4cc	4cc
4B-	4b-	4dd	4dd
=34	=34	=34	=34
4E-	4e-	4ee-	4ee-
2r	2r	2r	4r
.	.	.	4gg
=35	=35	=35	=35
4E-	4e-	8e-	4gg
.	.	8b-	.
2r	2r	8g	8bb-
.	.	8b-	8r
.	.	8e-	4bb-
.	.	8b-	.
=36	=36	=36	=36
4E-	4e-	8e-	4bb-
.	.	8b-	.
2r	2r	8g	8eee-
.	.	8b-	8r
.	.	8e-	4eee-
.	.	8b-	.
=37	=37	=37	=37
4BB-	4f	8f	4ddd
.	.	8b-	.
2r	2r	8a-	8ddd
.	.	8b-	8eee-
.	.	8f	8fff
.	.	8b-	8ggg
=38	=38	=38	=38
4BB-	4d	8f	4aaa-
.	.	8b-	.
2r	2r	8a-	4r
.	.	8b-	.
.	.	8f	4b-
.	.	8b-	.
=39	=39	=39	=39
4BB-	4d	8f	4b-
.	.	8b-	.
2r	2r	8a-	8dd
.	.	8b-	8r
.	.	8f	4dd
.	.	8b-	.
=40	=40	=40	=40
4BB-	4a-	8f	4dd
.	.	8b-	.
2r	4r	8a-	8ff
.	.	8b-	8r
.	4d	8f	4aa-
.	.	8b-	.
=41	=41	=41	=41
4E-	4e-	8e-	8aa-
.	.	8b-	8gg
4r	4r	8g	8bb-
.	.	8f	8aa-
4BB-	4B-	8e-	8gg
.	.	8d	8ff
=42	=42	=42	=42
4E-	4e-	4e-	4ee-
2r	2r	2r	4r
.	.	.	4gg
=43	=43	=43	=43
4C	4e-	8e-	4gg
.	.	8cc	.
2r	2r	8g	8ccc
.	.	8cc	8r
.	.	8e-	4ccc
.	.	8cc	.
=44	=44	=44	=44
4G	4f	8d	4bb
.	.	8b	.
2r	2r	8f	8ddd
.	.	8b	8r
.	.	8d	4ddd
.	.	8b	.
=45	=45	=45	=45
4C	4e-	8e-	4eee-
.	.	8cc	.
4r	2r	8ee-	8ggg
.	.	8dd	8fff
4GG	.	8cc	8eee-
.	.	8b	8ddd
=46	=46	=46	=46
4C	2r	4cc	4ccc
4E-	.	2r	4r
4AA	4c	.	4ff
=47	=47	=47	=47
4BB-	4d	8d	4ff
.	.	8b-	.
2r	2r	8f	8bb-
.	.	8b-	8r
.	.	8d	4bb-
.	.	8b-	.
=48	=48	=48	=48
4F	4c	8e-	4aa
.	.	8a	.
2r	2r	8f	8ccc
.	.	8a	8r
.	.	8e-	4ccc
.	.	8a	.
=49	=49	=49	=49
4BB-	4B-	8d	4ddd
.	.	8b-	.
4r	2r	8dd	8fff
.	.	8cc	8eee-
4F	.	8b-	8ddd
.	.	8a	8ccc
=50	=50	=50	=50
4BB-	4d	4b-	4bb-
4C	4e-	4r	4r
4D	4f	4f	4fff
=51	=51	=51	=51
4E-	4B-	8g	4fff
.	.	8b	.
2r	2r	8cc	4gg
.	.	8b	.
.	.	8cc	4gg
.	.	8dd	.
=52	=52	=52	=52
4C	4c	8ee-	2gg
.	.	8dd	.
2r	2r	8cc	.
.	.	8b-	.
.	.	8a	4eee-
.	.	8g	.
=53	=53	=53	=53
4AA	4c	8f	4eee-
.	.	8a	.
2r	2r	8b-	4ff
.	.	8a	.
.	.	8b-	4ff
.	.	8cc	.
=54	=54	=54	=54
4BB-	4B-	8dd	2ff
.	.	8cc	.
2r	2r	8b-	.
.	.	8a	.
.	.	8g	4ddd
.	.	8f	.
=55	=55	=55	=55
4E-	4E-	8f	8ddd
.	.	8e-	8ccc
4r	4r	8g	8eee-
.	.	8e-	8ccc
4F	4F	8d	8bb-
.	.	8c	8aa
=56	=56	=56	=56
4BB-	4B-	4B-	4bb-
4BB-	2r	2r	4r
4BB-	.	.	4b-
=57	=57	=57	=57
4BB-	4r	2.r	8dd
.	.	.	8r
4BB-	4B-	.	4dd
4BB-	4c	.	8ee-
.	.	.	16dd
.	.	.	16ee-
=58	=58	=58	=58
4BB-	2d	2r	2ff
4BB-	.	.	.
4BB-	4r	4b-	4dd
=59	=59	=59	=59
4BB-	4r	8dd	8ff
.	.	8r	8r
4BB-	4f	4dd	4ff
4BB-	4e-	8ee-	8gg
.	.	16dd	16ff
.	.	16ee-	16gg
=60	=60	=60	=60
4BB-	4d	4ff	4aa-
2r	2r	2r	4r
.	.	.	4gg
=61	=61	=61	=61
4E-	4e-	8e-	4gg
.	.	8b-	.
2r	2r	8g	8bb-
.	.	8b-	8r
.	.	8e-	4bb-
.	.	8b-	.
=62	=62	=62	=62
4E-	4e-	8e-	4bb-
.	.	8b-	.
2r	2r	8g	8eee-
.	.	8b-	8r
.	.	8e-	4eee-
.	.	8b-	.
=63	=63	=63	=63
4BB-	4f	8f	4ddd
.	.	8b-	.
2r	2r	8a-	8ddd
.	.	8b-	8eee-
.	.	8f	8fff
.	.	8b-	8ggg
=64	=64	=64	=64
4BB-	4d	8f	4aaa-
.	.	8b-	.
2r	2r	8a-	4r
.	.	8b-	.
.	.	8f	4b-
.	.	8b-	.
=65	=65	=65	=65
4BB-	4d	8f	4b-
.	.	8b-	.
2r	2r	8a-	8dd
.	.	8b-	8r
.	.	8f	4dd
.	.	8b-	.
=66	=66	=66	=66
4BB-	4a-	8f	4dd
.	.	8b-	.
2r	4r	8a-	8ff
.	.	8b-	8r
.	4d	8f	4aa-
.	.	8b-	.
=67	=67	=67	=67
4E-	4e-	8e-	8aa-
.	.	8b-	8gg
4r	4r	8g	8bb-
.	.	8f	8aa-
4BB-	4B-	8e-	8gg
.	.	8d	8ff
=68	=68	=68	=68
4E-	4e-	4e-	4ee-
2r	2r	2r	2r
==	==	==	==
*-	*-	*-	*-
!!!RWG1: This file contains only pitch and duration data.
!!!RWG2: Transposing instruments are not transposed.
!!!RWG3: Spines may have incompatible meters.
!!!RWG4: Durations of rests and tied notes may be interpreted.
!!!RWG: Key is interpreted using the Humdrum key tool.
!!!GTL: 6 Quators ("Jungfernquartette")
!!!OPT: The Joke
!!!AFT: stage1
!!!END: 1997/04/15
!!!KEY: 212624141
!!!EMD: Converted from MuseData to Humdrum Dec 16, 2000, by Andreas Kornstaedt using muse2kern.
!!!EMD: Manual editing by Craig Sapp, Nov 2001
